icons/1_Primary/Apigee.svg

<svg width="1024" height="1024" viewBox="0 0 1024 1024" fill="none" xmlns="http://www.w3.org/2000/svg">
<g clip-path="url(#clip0_2_1494)">
<path d="M512 1024C794.77 1024 1024 794.77 1024 512C1024 229.23 794.77 0 512 0C229.23 0 0 229.23 0 512C0 794.77 229.23 1024 512 1024Z" fill="#FF837D"/>
<path d="M310.7 551.199C310.7 559.299 310.7 571.699 295.7 571.699C286.6 571.699 282.8 566.699 280.7 558.399C272.6 567.999 262.9 572.999 250.9 572.999C221.5 572.999 199.1 547.999 199.1 512.699C199.1 478.299 222.2 451.899 250.9 451.899C262.4 451.899 273.8 456.499 280.7 466.299C281.6 458.699 288.1 453.199 295.7 453.199C310.7 453.199 310.7 465.599 310.7 473.699V551.199ZM255.2 544.199C271.5 544.199 279.4 527.599 279.4 512.599C279.4 497.599 271.8 480.599 255.2 480.599C238 480.599 230.4 497.599 230.4 512.599C230.4 527.699 238.2 544.199 255.2 544.199ZM319.6 470.599C319.6 460.099 326.1 453.199 335.3 453.199C344 453.199 349 457.999 351 466.299C356.9 456.699 369.1 451.899 380.8 451.899C414.5 451.899 431.3 483.499 431.3 513.899C431.3 543.499 411.3 572.899 379.7 572.899C369.9 572.899 359.2 569.199 350.9 561.999V600.299C350.9 610.799 344.4 617.699 335.2 617.699C326.1 617.699 319.5 610.699 319.5 600.299L319.6 470.599ZM375.5 544.199C391.8 544.199 399.9 527.199 399.9 512.599C399.9 497.799 391.8 480.599 375.5 480.599C358.7 480.599 350.9 496.299 350.9 511.499C350.9 526.799 358.3 544.199 375.5 544.199ZM471.9 423.399C471.9 433.199 464.1 441.499 454.3 441.499C444.9 441.499 436.7 432.999 436.7 423.399C436.7 414.499 445 406.199 454.3 406.199C463.7 406.199 471.9 414.199 471.9 423.399ZM438.7 470.599C438.7 460.099 445.2 453.199 454.4 453.199C463.5 453.199 470.1 460.199 470.1 470.599V554.199C470.1 564.699 463.6 571.599 454.4 571.599C445.3 571.599 438.7 564.599 438.7 554.199V470.599ZM589.1 561.199C589.1 598.899 564.5 617.799 528.8 617.799C515.9 617.799 479.4 611.499 479.4 594.299C479.4 588.399 485.9 580.599 492 580.599C502 580.599 513.1 590.399 531.2 590.399C546.4 590.399 557.8 581.499 557.8 565.599V558.199H557.3C550.8 567.799 540.1 572.999 525.7 572.999C492.8 572.999 477.4 543.999 477.4 512.899C477.4 481.299 497.4 451.899 529 451.899C539.7 451.899 551.9 456.699 557.8 466.299C559.8 457.999 564.8 453.199 573.5 453.199C582.6 453.199 589.2 460.199 589.2 470.599L589.1 561.199ZM533.1 480.599C516.8 480.599 508.7 497.599 508.7 512.199C508.7 528.999 516.8 544.199 533.1 544.199C549.9 544.199 557.7 528.499 557.7 513.299C557.8 498.099 550.3 480.599 533.1 480.599ZM626.8 522.899C629 538.399 641.8 545.599 656.4 545.599C672.5 545.599 683.6 532.999 691.9 532.999C698.7 532.999 704.8 539.799 704.8 546.499C704.8 559.999 676.9 573.099 653.6 573.099C618.3 573.099 594.8 547.399 594.8 512.799C594.8 480.999 617.9 451.999 651 451.999C685 451.999 707.4 482.899 707.4 509.099C707.4 518.499 703.3 522.999 693.7 522.999L626.8 522.899ZM676 501.999C674.3 488.299 665.5 478.099 651 478.099C637.1 478.099 627.7 488.799 626.2 501.999H676ZM744.4 523.299C746.6 538.799 759.4 545.999 774 545.999C790.1 545.999 801.2 533.399 809.5 533.399C816.3 533.399 822.4 540.199 822.4 546.899C822.4 560.399 794.5 573.499 771.2 573.499C735.9 573.499 712.4 547.799 712.4 513.199C712.4 481.399 735.5 452.399 768.6 452.399C802.6 452.399 825 483.299 825 509.499C825 518.899 820.9 523.399 811.3 523.399L744.4 523.299ZM793.6 502.399C791.9 488.699 783.1 478.499 768.6 478.499C754.7 478.499 745.3 489.199 743.8 502.399H793.6Z" fill="white"/>
</g>
<defs>
<clipPath id="clip0_2_1494">
<rect width="1024" height="1024" fill="white"/>
</clipPath>
</defs>
</svg>

<svg xmlns="http://www.w3.org/2000/svg" viewBox="0 0 1024 1024">
   <circle cx="512" cy="512" r="512" style="fill:#dd3303"/>
   <path d="M310.7 551.2c0 8.1 0 20.5-15 20.5-9.1 0-12.9-5-15-13.3-8.1 9.6-17.8 14.6-29.8 14.6-29.4 0-51.8-25-51.8-60.3 0-34.4 23.1-60.8 51.8-60.8 11.5 0 22.9 4.6 29.8 14.4.9-7.6 7.4-13.1 15-13.1 15 0 15 12.4 15 20.5v77.5zm-55.5-7c16.3 0 24.2-16.6 24.2-31.6s-7.6-32-24.2-32c-17.2 0-24.8 17-24.8 32 0 15.1 7.8 31.6 24.8 31.6zm64.4-73.6c0-10.5 6.5-17.4 15.7-17.4 8.7 0 13.7 4.8 15.7 13.1 5.9-9.6 18.1-14.4 29.8-14.4 33.7 0 50.5 31.6 50.5 62 0 29.6-20 59-51.6 59-9.8 0-20.5-3.7-28.8-10.9v38.3c0 10.5-6.5 17.4-15.7 17.4-9.1 0-15.7-7-15.7-17.4l.1-129.7zm55.9 73.6c16.3 0 24.4-17 24.4-31.6 0-14.8-8.1-32-24.4-32-16.8 0-24.6 15.7-24.6 30.9 0 15.3 7.4 32.7 24.6 32.7zm96.4-120.8c0 9.8-7.8 18.1-17.6 18.1-9.4 0-17.6-8.5-17.6-18.1 0-8.9 8.3-17.2 17.6-17.2 9.4 0 17.6 8 17.6 17.2zm-33.2 47.2c0-10.5 6.5-17.4 15.7-17.4 9.1 0 15.7 7 15.7 17.4v83.6c0 10.5-6.5 17.4-15.7 17.4-9.1 0-15.7-7-15.7-17.4v-83.6zm150.4 90.6c0 37.7-24.6 56.6-60.3 56.6-12.9 0-49.4-6.3-49.4-23.5 0-5.9 6.5-13.7 12.6-13.7 10 0 21.1 9.8 39.2 9.8 15.2 0 26.6-8.9 26.6-24.8v-7.4h-.5c-6.5 9.6-17.2 14.8-31.6 14.8-32.9 0-48.3-29-48.3-60.1 0-31.6 20-61 51.6-61 10.7 0 22.9 4.8 28.8 14.4 2-8.3 7-13.1 15.7-13.1 9.1 0 15.7 7 15.7 17.4l-.1 90.6zm-56-80.6c-16.3 0-24.4 17-24.4 31.6 0 16.8 8.1 32 24.4 32 16.8 0 24.6-15.7 24.6-30.9.1-15.2-7.4-32.7-24.6-32.7zm93.7 42.3c2.2 15.5 15 22.7 29.6 22.7 16.1 0 27.2-12.6 35.5-12.6 6.8 0 12.9 6.8 12.9 13.5 0 13.5-27.9 26.6-51.2 26.6-35.3 0-58.8-25.7-58.8-60.3 0-31.8 23.1-60.8 56.2-60.8 34 0 56.4 30.9 56.4 57.1 0 9.4-4.1 13.9-13.7 13.9l-66.9-.1zM676 502c-1.7-13.7-10.5-23.9-25-23.9-13.9 0-23.3 10.7-24.8 23.9H676zm68.4 21.3c2.2 15.5 15 22.7 29.6 22.7 16.1 0 27.2-12.6 35.5-12.6 6.8 0 12.9 6.8 12.9 13.5 0 13.5-27.9 26.6-51.2 26.6-35.3 0-58.8-25.7-58.8-60.3 0-31.8 23.1-60.8 56.2-60.8 34 0 56.4 30.9 56.4 57.1 0 9.4-4.1 13.9-13.7 13.9l-66.9-.1zm49.2-20.9c-1.7-13.7-10.5-23.9-25-23.9-13.9 0-23.3 10.7-24.8 23.9h49.8z" style="fill:#fff"/>
</svg>
